src/public/img/about/gcorelabs.svg

<svg width="409" height="116" viewBox="0 0 409 116" fill="none" xmlns="http://www.w3.org/2000/svg">
<path fill-rule="evenodd" clip-rule="evenodd" d="M119.947 57.6356C119.947 89.448 94.1583 115.237 62.346 115.237C49.4966 115.237 37.6298 111.03 28.0483 103.917C29.6883 104.837 31.3807 105.672 33.1194 106.417C39.7094 109.258 46.8097 110.725 53.9861 110.728C67.3521 110.723 80.2237 105.674 90.0281 96.5896C99.8325 87.5054 105.847 75.0557 106.87 61.7289C107.014 60.4733 107.093 59.2112 107.107 57.9474C107.107 56.3412 106.973 54.4743 106.81 52.7815C106.795 52.62 106.79 52.4559 106.785 52.2918C106.779 52.1023 106.773 51.9127 106.752 51.7271L106.706 51.7731C106.47 49.5656 106.217 47.86 106.217 47.86H64.4158L61.1685 53.936L53.7044 68.0352H85.2881C84.1194 71.5297 82.3732 74.8035 80.1219 77.7206C77.0523 81.7386 73.0973 84.9945 68.5643 87.235C64.0314 89.4755 59.0428 90.6404 53.9863 90.6388C50.1148 90.6313 46.2751 89.9397 42.6443 88.596C36.297 86.2759 30.8155 82.062 26.9415 76.5246C23.0674 70.9872 20.9878 64.3935 20.9838 57.6354C20.9838 53.3014 21.8373 49.0097 23.4958 45.0056C25.1543 41.0014 27.5852 37.3632 30.6498 34.2985C33.7143 31.2338 37.3525 28.8027 41.3566 27.1441C45.3607 25.4855 49.6523 24.6318 53.9863 24.6317C60.9809 24.6213 67.7962 26.8433 73.4405 30.9743L77.7733 22.8679L82.933 13.1208C74.3237 7.50714 64.2642 4.52601 53.9863 4.54248C44.9012 4.54541 36.0431 6.87855 28.2208 11.2264C37.7721 4.1914 49.5736 0.0343087 62.346 0.0343087C94.1583 0.0343087 119.947 25.8233 119.947 57.6356Z" fill="#FF5700"/>
<path d="M198.971 70.3519C196.915 72.8226 194.328 74.7965 191.401 76.126C188.786 77.2755 185.956 77.8579 183.099 77.8346C179.448 77.8995 175.843 77.0138 172.638 75.2642C172.522 75.1996 172.424 75.1176 172.31 75.051C169.44 73.3962 167.075 70.9914 165.468 68.0946C163.719 64.8895 162.833 61.2847 162.898 57.6339C162.834 53.9831 163.72 50.3783 165.468 47.1731C167.075 44.2767 169.439 41.8723 172.309 40.2175C172.423 40.1507 172.522 40.0683 172.638 40.0035C175.844 38.2554 179.448 37.3698 183.099 37.4331C185.958 37.4096 188.789 37.9864 191.411 39.1264L197.356 27.9448C197.307 27.9228 197.263 27.8942 197.213 27.8724C192.52 25.8963 187.469 24.9145 182.378 24.9889C176.757 24.9308 171.197 26.1635 166.127 28.5921C165.702 28.7982 165.254 28.9561 164.837 29.1804C159.759 31.8595 155.515 35.8849 152.573 40.8155C149.562 45.9024 148.017 51.7231 148.109 57.6336C148.017 63.5451 149.562 69.3668 152.573 74.4551C155.516 79.384 159.759 83.4081 164.837 86.0869C165.255 86.3115 165.702 86.4699 166.128 86.6767C171.168 89.1001 176.696 90.3335 182.288 90.2816C187.394 90.3533 192.46 89.3705 197.169 87.3949C197.23 87.3682 197.285 87.3329 197.346 87.306C201.623 85.4562 205.395 82.6115 208.35 79.0086L198.971 70.3519Z" fill="#27333F"/>
<path d="M229.678 86.0415C224.565 83.358 220.291 79.3176 217.324 74.3641C214.321 69.306 212.776 63.5157 212.86 57.634C212.776 51.7523 214.321 45.9622 217.324 40.9039C220.292 35.9518 224.567 31.9119 229.678 29.2264C235.137 26.3531 241.231 24.8962 247.4 24.9893C253.554 24.8926 259.634 26.35 265.076 29.2264C270.174 31.9294 274.444 35.9653 277.43 40.9039C280.46 45.9526 282.022 51.7464 281.939 57.634C282.022 63.5216 280.46 69.3155 277.43 74.3641C274.446 79.3042 270.176 83.3405 265.076 86.0415C259.635 88.9205 253.555 90.3791 247.4 90.282C241.23 90.3755 235.137 88.9174 229.678 86.0415V86.0415ZM257.5 75.2643C260.48 73.5779 262.931 71.0954 264.58 68.0948C266.328 64.8893 267.214 61.2847 267.15 57.634C267.214 53.9833 266.328 50.3787 264.58 47.1732C262.931 44.1726 260.48 41.6901 257.5 40.0036C254.419 38.2714 250.934 37.3846 247.4 37.4333C243.865 37.3842 240.38 38.271 237.299 40.0036C234.319 41.6896 231.868 44.1722 230.219 47.1732C228.471 50.3785 227.585 53.9832 227.649 57.634C227.584 61.2848 228.47 64.8896 230.219 68.0948C231.868 71.0957 234.319 73.5783 237.299 75.2643C240.38 76.9985 243.865 77.8854 247.4 77.8347C250.934 77.885 254.419 76.998 257.5 75.2643V75.2643Z" fill="#27333F"/>
<path d="M333.165 89.1988L320.99 71.6141H307.553V89.1988H292.943V26.0687H320.268C325.267 25.9523 330.233 26.9053 334.833 28.8641C338.71 30.5276 342.017 33.287 344.347 36.8035C346.632 40.4447 347.793 44.6791 347.684 48.9768C347.797 53.2678 346.619 57.4939 344.303 61.1077C341.937 64.5943 338.596 67.3067 334.698 68.9068L348.856 89.1988H333.165ZM329.466 40.8156C326.563 38.7311 323.023 37.7263 319.457 37.9745H307.553V59.9791H319.457C323.03 60.2283 326.575 59.2058 329.466 57.0923C330.618 56.0901 331.526 54.8378 332.12 53.4313C332.714 52.0248 332.979 50.5013 332.894 48.9768C332.988 47.4446 332.727 45.9113 332.133 44.496C331.538 43.0807 330.626 41.8215 329.466 40.8156V40.8156Z" fill="#27333F"/>
<path d="M408.105 77.4758V89.1989H359.226V26.0688H406.932V37.7952H373.744V51.5016H403.054V62.8659H373.744V77.4756L408.105 77.4758Z" fill="#27333F"/>
</svg>

<svg xmlns="http://www.w3.org/2000/svg" width="409" height="116" fill="none">
  <path fill="#FF5700" fill-rule="evenodd" d="M119.947 57.636c0 31.812-25.789 57.601-57.601 57.601-12.85 0-24.716-4.207-34.298-11.32 1.64.92 3.333 1.755 5.071 2.5a52.765 52.765 0 0 0 20.867 4.311 53.058 53.058 0 0 0 52.884-49c.144-1.255.223-2.517.237-3.78 0-1.607-.134-3.474-.297-5.166-.015-.162-.02-.326-.025-.49-.006-.19-.012-.38-.033-.565l-.046.046a107.716 107.716 0 0 0-.489-3.913H64.416l-3.247 6.076-7.465 14.1h31.584a32.966 32.966 0 0 1-5.166 9.685 32.876 32.876 0 0 1-26.136 12.918 32.862 32.862 0 0 1-11.342-2.043 32.984 32.984 0 0 1-21.66-30.96 33.004 33.004 0 0 1 33.002-33.004 32.857 32.857 0 0 1 19.455 6.342l4.332-8.106 5.16-9.747a52.842 52.842 0 0 0-28.947-8.579 53.067 53.067 0 0 0-25.765 6.684C37.772 4.191 49.574.034 62.346.034c31.812 0 57.601 25.79 57.601 57.602Z" clip-rule="evenodd"/>
  <path fill="#27333F" d="M198.971 70.352a21.316 21.316 0 0 1-7.57 5.774 20.222 20.222 0 0 1-8.302 1.709 21.051 21.051 0 0 1-10.461-2.57c-.116-.065-.214-.147-.328-.214a18.248 18.248 0 0 1-6.842-6.956 21.056 21.056 0 0 1-2.57-10.461 21.078 21.078 0 0 1 2.57-10.46 18.246 18.246 0 0 1 6.841-6.956c.114-.067.213-.15.329-.215a21.087 21.087 0 0 1 10.461-2.57 20.43 20.43 0 0 1 8.312 1.693l5.945-11.181c-.049-.022-.093-.05-.143-.073a36.84 36.84 0 0 0-14.835-2.883 36.74 36.74 0 0 0-16.251 3.603c-.425.206-.873.364-1.29.588a31.276 31.276 0 0 0-12.264 11.636 32.039 32.039 0 0 0-4.464 16.818 32.051 32.051 0 0 0 4.464 16.821 31.285 31.285 0 0 0 12.264 11.632c.418.224.865.383 1.291.59a36.507 36.507 0 0 0 16.16 3.605 37.118 37.118 0 0 0 14.881-2.887c.061-.027.116-.062.177-.089a29.246 29.246 0 0 0 11.004-8.297l-9.379-8.657Zm30.707 15.689a31.422 31.422 0 0 1-12.354-11.677 31.88 31.88 0 0 1-4.464-16.73 31.88 31.88 0 0 1 4.464-16.73 31.466 31.466 0 0 1 12.354-11.678A36.856 36.856 0 0 1 247.4 24.99a36.597 36.597 0 0 1 17.676 4.237 31.898 31.898 0 0 1 12.354 11.678 31.645 31.645 0 0 1 4.509 16.73 31.645 31.645 0 0 1-4.509 16.73 31.845 31.845 0 0 1-12.354 11.677 36.561 36.561 0 0 1-17.676 4.241 36.823 36.823 0 0 1-17.722-4.24ZM257.5 75.264a18.444 18.444 0 0 0 7.08-7.17 21.079 21.079 0 0 0 2.57-10.46 21.079 21.079 0 0 0-2.57-10.46 18.44 18.44 0 0 0-7.08-7.17 20.047 20.047 0 0 0-10.1-2.57 20.04 20.04 0 0 0-10.101 2.57 18.439 18.439 0 0 0-7.08 7.17 21.078 21.078 0 0 0-2.57 10.46 21.056 21.056 0 0 0 2.57 10.46 18.433 18.433 0 0 0 7.08 7.17 20.007 20.007 0 0 0 10.101 2.57 20.005 20.005 0 0 0 10.1-2.57Zm75.665 13.935L320.99 71.614h-13.437V89.2h-14.61V26.07h27.325a35.091 35.091 0 0 1 14.565 2.795 21.656 21.656 0 0 1 9.514 7.94 21.86 21.86 0 0 1 3.337 12.173 21.437 21.437 0 0 1-3.381 12.13 21.453 21.453 0 0 1-9.605 7.8L348.856 89.2h-15.691Zm-3.699-48.383a15.334 15.334 0 0 0-10.009-2.842h-11.904V59.98h11.904a15.17 15.17 0 0 0 10.009-2.887 10.02 10.02 0 0 0 3.428-8.115 9.998 9.998 0 0 0-3.428-8.161Zm78.639 36.66v11.723h-48.879v-63.13h47.706v11.726h-33.188v13.707h29.31v11.364h-29.31v14.61h34.361Z"/>
</svg>
